static/img/kroki/3cb9ae406dfdcc14b39fe95fbc36f39f.svg

<?xml version="1.0" encoding="us-ascii" standalone="no"?><svg xmlns="http://www.w3.org/2000/svg" xmlns:xlink="http://www.w3.org/1999/xlink" contentStyleType="text/css" height="451px" preserveAspectRatio="none" style="width:600px;height:451px;" version="1.1" viewBox="0 0 600 451" width="600px" zoomAndPan="magnify"><defs/><g><!--class digitalocean_app--><g id="elem_digitalocean_app"><rect codeLine="22" fill="#3D176E" height="39.7891" id="digitalocean_app" rx="2.5" ry="2.5" style="stroke:#000D19;stroke-width:0.5;" width="182" x="204.5" y="406.16"/><ellipse cx="219.5" cy="426.0545" fill="#ADD1B2" rx="11" ry="11" style="stroke:#181818;stroke-width:1.0;"/><path d="M222.4688,431.6952 Q221.8906,431.992 221.25,432.1327 Q220.6094,432.2889 219.9063,432.2889 Q217.4063,432.2889 216.0781,430.6483 Q214.7656,428.992 214.7656,425.867 Q214.7656,422.742 216.0781,421.0858 Q217.4063,419.4295 219.9063,419.4295 Q220.6094,419.4295 221.25,419.5858 Q221.9063,419.742 222.4688,420.0389 L222.4688,422.7577 Q221.8438,422.1795 221.25,421.9139 Q220.6563,421.6327 220.0313,421.6327 Q218.6875,421.6327 218,422.7108 Q217.3125,423.7733 217.3125,425.867 Q217.3125,427.9608 218,429.0389 Q218.6875,430.1014 220.0313,430.1014 Q220.6563,430.1014 221.25,429.8358 Q221.8438,429.5545 222.4688,428.9764 L222.4688,431.6952 Z " fill="#000000"/><text fill="#D9B8FF" font-family="Helvetica" font-size="17" lengthAdjust="spacing" textLength="140" x="238.5" y="431.9398">digitalocean_app</text></g><!--class digitalocean_database--><g id="elem_digitalocean_database"><rect codeLine="24" fill="#3D176E" height="39.7891" id="digitalocean_database" rx="2.5" ry="2.5" style="stroke:#000D19;stroke-width:0.5;" width="227" x="182" y="306.37"/><ellipse cx="197" cy="326.2645" fill="#ADD1B2" rx="11" ry="11" style="stroke:#181818;stroke-width:1.0;"/><path d="M199.9688,331.9052 Q199.3906,332.202 198.75,332.3427 Q198.1094,332.4989 197.4063,332.4989 Q194.9063,332.4989 193.5781,330.8583 Q192.2656,329.202 192.2656,326.077 Q192.2656,322.952 193.5781,321.2958 Q194.9063,319.6395 197.4063,319.6395 Q198.1094,319.6395 198.75,319.7958 Q199.4063,319.952 199.9688,320.2489 L199.9688,322.9677 Q199.3438,322.3895 198.75,322.1239 Q198.1563,321.8427 197.5313,321.8427 Q196.1875,321.8427 195.5,322.9208 Q194.8125,323.9833 194.8125,326.077 Q194.8125,328.1708 195.5,329.2489 Q196.1875,330.3114 197.5313,330.3114 Q198.1563,330.3114 198.75,330.0458 Q199.3438,329.7645 199.9688,329.1864 L199.9688,331.9052 Z " fill="#000000"/><text fill="#D9B8FF" font-family="Helvetica" font-size="17" lengthAdjust="spacing" textLength="185" x="216" y="332.1498">digitalocean_database</text></g><!--class digitalocean_project--><g id="elem_digitalocean_project"><rect codeLine="26" fill="#3D176E" height="39.7891" id="digitalocean_project" rx="2.5" ry="2.5" style="stroke:#000D19;stroke-width:0.5;" width="209" x="306" y="206.58"/><ellipse cx="321" cy="226.4745" fill="#ADD1B2" rx="11" ry="11" style="stroke:#181818;stroke-width:1.0;"/><path d="M323.9688,232.1152 Q323.3906,232.412 322.75,232.5527 Q322.1094,232.7089 321.4063,232.7089 Q318.9063,232.7089 317.5781,231.0683 Q316.2656,229.412 316.2656,226.287 Q316.2656,223.162 317.5781,221.5058 Q318.9063,219.8495 321.4063,219.8495 Q322.1094,219.8495 322.75,220.0058 Q323.4063,220.162 323.9688,220.4589 L323.9688,223.1777 Q323.3438,222.5995 322.75,222.3339 Q322.1563,222.0527 321.5313,222.0527 Q320.1875,222.0527 319.5,223.1308 Q318.8125,224.1933 318.8125,226.287 Q318.8125,228.3808 319.5,229.4589 Q320.1875,230.5214 321.5313,230.5214 Q322.1563,230.5214 322.75,230.2558 Q323.3438,229.9745 323.9688,229.3964 L323.9688,232.1152 Z " fill="#000000"/><text fill="#D9B8FF" font-family="Helvetica" font-size="17" lengthAdjust="spacing" textLength="167" x="340" y="232.3598">digitalocean_project</text></g><!--class digitalocean_region--><g id="elem_digitalocean_region"><rect codeLine="28" fill="#3D176E" height="39.7891" id="digitalocean_region" rx="2.5" ry="2.5" style="stroke:#000D19;stroke-width:0.5;" width="205" x="7" y="106.79"/><ellipse cx="22" cy="126.6845" fill="#ADD1B2" rx="11" ry="11" style="stroke:#181818;stroke-width:1.0;"/><path d="M24.9688,132.3252 Q24.3906,132.622 23.75,132.7627 Q23.1094,132.9189 22.4063,132.9189 Q19.9063,132.9189 18.5781,131.2783 Q17.2656,129.622 17.2656,126.497 Q17.2656,123.372 18.5781,121.7158 Q19.9063,120.0595 22.4063,120.0595 Q23.1094,120.0595 23.75,120.2158 Q24.4063,120.372 24.9688,120.6689 L24.9688,123.3877 Q24.3438,122.8095 23.75,122.5439 Q23.1563,122.2627 22.5313,122.2627 Q21.1875,122.2627 20.5,123.3408 Q19.8125,124.4033 19.8125,126.497 Q19.8125,128.5908 20.5,129.6689 Q21.1875,130.7314 22.5313,130.7314 Q23.1563,130.7314 23.75,130.4658 Q24.3438,130.1845 24.9688,129.6064 L24.9688,132.3252 Z " fill="#000000"/><text fill="#D9B8FF" font-family="Helvetica" font-size="17" lengthAdjust="spacing" textLength="163" x="41" y="132.5698">digitalocean_region</text></g><!--class digitalocean_team--><g id="elem_digitalocean_team"><rect codeLine="30" fill="#3D176E" height="39.7891" id="digitalocean_team" rx="2.5" ry="2.5" style="stroke:#000D19;stroke-width:0.5;" width="196" x="312.5" y="7"/><ellipse cx="327.5" cy="26.8945" fill="#ADD1B2" rx="11" ry="11" style="stroke:#181818;stroke-width:1.0;"/><path d="M330.4688,32.5352 Q329.8906,32.832 329.25,32.9727 Q328.6094,33.1289 327.9063,33.1289 Q325.4063,33.1289 324.0781,31.4883 Q322.7656,29.832 322.7656,26.707 Q322.7656,23.582 324.0781,21.9258 Q325.4063,20.2695 327.9063,20.2695 Q328.6094,20.2695 329.25,20.4258 Q329.9063,20.582 330.4688,20.8789 L330.4688,23.5977 Q329.8438,23.0195 329.25,22.7539 Q328.6563,22.4727 328.0313,22.4727 Q326.6875,22.4727 326,23.5508 Q325.3125,24.6133 325.3125,26.707 Q325.3125,28.8008 326,29.8789 Q326.6875,30.9414 328.0313,30.9414 Q328.6563,30.9414 329.25,30.6758 Q329.8438,30.3945 330.4688,29.8164 L330.4688,32.5352 Z " fill="#000000"/><text fill="#D9B8FF" font-family="Helvetica" font-size="17" lengthAdjust="spacing" textLength="154" x="346.5" y="32.7798">digitalocean_team</text></g><!--class digitalocean_vpc--><g id="elem_digitalocean_vpc"><rect codeLine="32" fill="#3D176E" height="39.7891" id="digitalocean_vpc" rx="2.5" ry="2.5" style="stroke:#000D19;stroke-width:0.5;" width="180" x="90.5" y="206.58"/><ellipse cx="105.5" cy="226.4745" fill="#ADD1B2" rx="11" ry="11" style="stroke:#181818;stroke-width:1.0;"/><path d="M108.4688,232.1152 Q107.8906,232.412 107.25,232.5527 Q106.6094,232.7089 105.9063,232.7089 Q103.4063,232.7089 102.0781,231.0683 Q100.7656,229.412 100.7656,226.287 Q100.7656,223.162 102.0781,221.5058 Q103.4063,219.8495 105.9063,219.8495 Q106.6094,219.8495 107.25,220.0058 Q107.9063,220.162 108.4688,220.4589 L108.4688,223.1777 Q107.8438,222.5995 107.25,222.3339 Q106.6563,222.0527 106.0313,222.0527 Q104.6875,222.0527 104,223.1308 Q103.3125,224.1933 103.3125,226.287 Q103.3125,228.3808 104,229.4589 Q104.6875,230.5214 106.0313,230.5214 Q106.6563,230.5214 107.25,230.2558 Q107.8438,229.9745 108.4688,229.3964 L108.4688,232.1152 Z " fill="#000000"/><text fill="#D9B8FF" font-family="Helvetica" font-size="17" lengthAdjust="spacing" textLength="138" x="124.5" y="232.3598">digitalocean_vpc</text></g><!--link digitalocean_database to digitalocean_app--><g id="link_digitalocean_database_digitalocean_app"><path codeLine="34" d="M295.5,346.59 C295.5,361.86 295.5,383.29 295.5,399.9 " fill="none" id="digitalocean_database-to-digitalocean_app" style="stroke:#1A83AF;stroke-width:2.0;"/><polygon fill="#1A83AF" points="295.5,404.78,299.5,395.78,295.5,399.78,291.5,395.78,295.5,404.78" style="stroke:#1A83AF;stroke-width:2.0;"/></g><!--link digitalocean_project to digitalocean_database--><g id="link_digitalocean_project_digitalocean_database"><path codeLine="35" d="M387.78,246.8 C369.04,262.74 342.39,285.39 322.55,302.26 " fill="none" id="digitalocean_project-to-digitalocean_database" style="stroke:#1A83AF;stroke-width:2.0;"/><polygon fill="#1A83AF" points="319.17,305.99,328.6177,303.2079,322.9793,302.7513,323.4359,297.1129,319.17,305.99" style="stroke:#1A83AF;stroke-width:2.0;"/></g><!--link digitalocean_region to digitalocean_app--><g id="link_digitalocean_region_digitalocean_app"><path codeLine="36" d="M90.37,146.97 C69.54,170.42 41.12,211.23 56.5,246.37 C90.92,325.04 180.96,376.74 240.16,403.42 " fill="none" id="digitalocean_region-to-digitalocean_app" style="stroke:#1A83AF;stroke-width:2.0;"/><polygon fill="#1A83AF" points="244.44,405.77,237.836,398.4633,239.8698,403.742,234.5911,405.7757,244.44,405.77" style="stroke:#1A83AF;stroke-width:2.0;"/></g><!--link digitalocean_region to digitalocean_database--><g id="link_digitalocean_region_digitalocean_database"><path codeLine="37" d="M93.87,146.98 C75.71,171.9 50.82,215.71 72.5,246.37 C96.61,280.47 136.74,299.93 176.38,311 " fill="none" id="digitalocean_region-to-digitalocean_database" style="stroke:#1A83AF;stroke-width:2.0;"/><polygon fill="#1A83AF" points="180.71,312.44,173.0594,306.2378,175.8819,311.1401,170.9796,313.9627,180.71,312.44" style="stroke:#1A83AF;stroke-width:2.0;"/></g><!--link digitalocean_region to digitalocean_vpc--><g id="link_digitalocean_region_digitalocean_vpc"><path codeLine="38" d="M123.53,147.01 C134.9,162.68 151,184.84 163.18,201.62 " fill="none" id="digitalocean_region-to-digitalocean_vpc" style="stroke:#1A83AF;stroke-width:2.0;"/><polygon fill="#1A83AF" points="166.5,205.2,164.4374,195.5696,163.5574,201.1576,157.9694,200.2776,166.5,205.2" style="stroke:#1A83AF;stroke-width:2.0;"/></g><!--link digitalocean_team to digitalocean_app--><g id="link_digitalocean_team_digitalocean_app"><path codeLine="39" d="M458.81,47.2 C485.67,60.26 517.59,80.03 537.5,106.79 C575.21,157.49 593.25,190.11 564.5,246.37 C522.94,327.71 425.33,377.89 359.84,403.63 " fill="none" id="digitalocean_team-to-digitalocean_app" style="stroke:#1A83AF;stroke-width:2.0;"/><polygon fill="#1A83AF" points="355.4,405.74,365.2368,406.2264,360.0638,403.9374,362.3527,398.7644,355.4,405.74" style="stroke:#1A83AF;stroke-width:2.0;"/></g><!--link digitalocean_team to digitalocean_database--><g id="link_digitalocean_team_digitalocean_database"><path codeLine="40" d="M436.04,47.2 C484.83,86.4 582.17,177.48 532.5,246.37 C505.32,284.07 459.36,304.03 415.11,314.5 " fill="none" id="digitalocean_team-to-digitalocean_database" style="stroke:#1A83AF;stroke-width:2.0;"/><polygon fill="#1A83AF" points="410.45,315.79,420.1153,317.6825,415.3241,314.6751,418.3315,309.8839,410.45,315.79" style="stroke:#1A83AF;stroke-width:2.0;"/></g><!--link digitalocean_team to digitalocean_project--><g id="link_digitalocean_team_digitalocean_project"><path codeLine="41" d="M410.5,47.2 C410.5,83.21 410.5,160.55 410.5,200.48 " fill="none" id="digitalocean_team-to-digitalocean_project" style="stroke:#1A83AF;stroke-width:2.0;"/><polygon fill="#1A83AF" points="410.5,205.09,414.5,196.09,410.5,200.09,406.5,196.09,410.5,205.09" style="stroke:#1A83AF;stroke-width:2.0;"/></g><!--link digitalocean_team to digitalocean_region--><g id="link_digitalocean_team_digitalocean_region"><path codeLine="42" d="M351.03,47.22 C300.2,63.73 227.18,87.46 174.75,104.49 " fill="none" id="digitalocean_team-to-digitalocean_region" style="stroke:#1A83AF;stroke-width:2.0;"/><polygon fill="#1A83AF" points="170.1,106.32,179.8959,107.3397,174.8547,104.7733,177.4212,99.7321,170.1,106.32" style="stroke:#1A83AF;stroke-width:2.0;"/></g><!--link digitalocean_team to digitalocean_vpc--><g id="link_digitalocean_team_digitalocean_vpc"><path codeLine="43" d="M388.03,47.2 C345.43,83.8 253.11,163.1 207.34,202.42 " fill="none" id="digitalocean_team-to-digitalocean_vpc" style="stroke:#1A83AF;stroke-width:2.0;"/><polygon fill="#1A83AF" points="204.06,206.09,213.4912,203.2523,207.8502,202.829,208.2736,197.188,204.06,206.09" style="stroke:#1A83AF;stroke-width:2.0;"/></g><!--link digitalocean_vpc to digitalocean_database--><g id="link_digitalocean_vpc_digitalocean_database"><path codeLine="44" d="M203.22,246.8 C221.96,262.74 248.61,285.39 268.45,302.26 " fill="none" id="digitalocean_vpc-to-digitalocean_database" style="stroke:#1A83AF;stroke-width:2.0;"/><polygon fill="#1A83AF" points="271.83,305.99,267.5641,297.1129,268.0207,302.7513,262.3823,303.2079,271.83,305.99" style="stroke:#1A83AF;stroke-width:2.0;"/></g><!--SRC=[dP9DQy9048Rl-HKBdWLJQTLB8HMalKYflPLI9jb9t9hiXjbHiQN_lSQF4hE98RtcVMRdUOSibKI1MSuxaM4M8bdFhfJEWI0J0P7PJargIFJY6EBXg1hEZEPMO0uPYaTCDyWgWYhnkbJHIgErugOKFK2qIiYijJm-pmJQxYFKNAAcALWRC9CArumb6Ja9nt5S9QkFzeRI7zsXWncII2TaC1X8Vr95MbTTxVr7BDGN2hzyjBbXT3IT5GVggcL1b2ITekUyqV4Pf5Gw4RUbRoz79z985zyNIv1cMz0nfBQynZ8I6jxbE7LQuMGiur4j_DG4HyNbX5I9OaXDXA0_8C_5j_TJ5qbW2C5YKvwJ-SI8csB2H1dTb3BkbHkoJHuTedgR_blF3yR3OFRUltUwUBM6pIFdLxqwzGwRMYV-kMX_2i-zMmUn5hvUgsNeTDPECyUcdKQSxiL_qLxb5m00]--></g></svg>

<svg xmlns="http://www.w3.org/2000/svg" width="600" height="451" preserveAspectRatio="none" style="width:600px;height:451px"><rect width="182" height="39.789" x="204.5" y="406.16" fill="#3D176E" rx="2.5" ry="2.5" style="stroke:#000d19;stroke-width:.5"/><circle cx="219.5" cy="426.055" r="11" fill="#ADD1B2" style="stroke:#181818;stroke-width:1"/><path d="M222.469 431.695q-.578.297-1.219.438-.64.156-1.344.156-2.5 0-3.828-1.64-1.312-1.657-1.312-4.782t1.312-4.781q1.328-1.656 3.828-1.656.703 0 1.344.156.656.156 1.219.453v2.719q-.625-.578-1.219-.844-.594-.281-1.219-.281-1.344 0-2.031 1.078-.688 1.062-.688 3.156 0 2.094.688 3.172.688 1.062 2.031 1.062.625 0 1.219-.265.594-.281 1.219-.86v2.72Z"/><text x="238.5" y="431.94" fill="#D9B8FF" font-family="Helvetica" font-size="17" textLength="140">digitalocean_app</text><rect width="227" height="39.789" x="182" y="306.37" fill="#3D176E" rx="2.5" ry="2.5" style="stroke:#000d19;stroke-width:.5"/><circle cx="197" cy="326.264" r="11" fill="#ADD1B2" style="stroke:#181818;stroke-width:1"/><path d="M199.969 331.905q-.578.297-1.219.438-.64.156-1.344.156-2.5 0-3.828-1.64-1.312-1.657-1.312-4.782t1.312-4.781q1.328-1.656 3.828-1.656.703 0 1.344.156.656.156 1.219.453v2.719q-.625-.579-1.219-.844-.594-.281-1.219-.281-1.344 0-2.031 1.078-.688 1.062-.688 3.156 0 2.094.688 3.172.688 1.062 2.031 1.062.625 0 1.219-.265.594-.281 1.219-.86v2.72Z"/><text x="216" y="332.15" fill="#D9B8FF" font-family="Helvetica" font-size="17" textLength="185">digitalocean_database</text><rect width="209" height="39.789" x="306" y="206.58" fill="#3D176E" rx="2.5" ry="2.5" style="stroke:#000d19;stroke-width:.5"/><circle cx="321" cy="226.475" r="11" fill="#ADD1B2" style="stroke:#181818;stroke-width:1"/><path d="M323.969 232.115q-.578.297-1.219.438-.64.156-1.344.156-2.5 0-3.828-1.64-1.312-1.657-1.312-4.782t1.312-4.781q1.328-1.656 3.828-1.656.703 0 1.344.156.656.156 1.219.453v2.719q-.625-.578-1.219-.844-.594-.281-1.219-.281-1.344 0-2.031 1.078-.688 1.062-.688 3.156 0 2.094.688 3.172.688 1.062 2.031 1.062.625 0 1.219-.265.594-.281 1.219-.86v2.72Z"/><text x="340" y="232.36" fill="#D9B8FF" font-family="Helvetica" font-size="17" textLength="167">digitalocean_project</text><rect width="205" height="39.789" x="7" y="106.79" fill="#3D176E" rx="2.5" ry="2.5" style="stroke:#000d19;stroke-width:.5"/><circle cx="22" cy="126.684" r="11" fill="#ADD1B2" style="stroke:#181818;stroke-width:1"/><path d="M24.969 132.325q-.578.297-1.219.438-.64.156-1.344.156-2.5 0-3.828-1.64-1.312-1.657-1.312-4.782t1.312-4.781q1.328-1.656 3.828-1.656.703 0 1.344.156.656.156 1.219.453v2.719q-.625-.579-1.219-.844-.594-.281-1.219-.281-1.343 0-2.031 1.078-.688 1.062-.688 3.156 0 2.094.688 3.172.688 1.062 2.031 1.062.625 0 1.219-.265.594-.281 1.219-.86v2.72Z"/><text x="41" y="132.57" fill="#D9B8FF" font-family="Helvetica" font-size="17" textLength="163">digitalocean_region</text><rect width="196" height="39.789" x="312.5" y="7" fill="#3D176E" rx="2.5" ry="2.5" style="stroke:#000d19;stroke-width:.5"/><circle cx="327.5" cy="26.895" r="11" fill="#ADD1B2" style="stroke:#181818;stroke-width:1"/><path d="M330.469 32.535q-.578.297-1.219.438-.64.156-1.344.156-2.5 0-3.828-1.64-1.312-1.657-1.312-4.782t1.312-4.781q1.328-1.656 3.828-1.656.703 0 1.344.156.656.156 1.219.453v2.719q-.625-.578-1.219-.844-.594-.281-1.219-.281-1.344 0-2.031 1.078-.688 1.062-.688 3.156 0 2.094.688 3.172.688 1.062 2.031 1.062.625 0 1.219-.265.594-.281 1.219-.86v2.72Z"/><text x="346.5" y="32.78" fill="#D9B8FF" font-family="Helvetica" font-size="17" textLength="154">digitalocean_team</text><rect width="180" height="39.789" x="90.5" y="206.58" fill="#3D176E" rx="2.5" ry="2.5" style="stroke:#000d19;stroke-width:.5"/><circle cx="105.5" cy="226.475" r="11" fill="#ADD1B2" style="stroke:#181818;stroke-width:1"/><path d="M108.469 232.115q-.578.297-1.219.438-.64.156-1.344.156-2.5 0-3.828-1.64-1.312-1.657-1.312-4.782t1.312-4.781q1.328-1.656 3.828-1.656.703 0 1.344.156.656.156 1.219.453v2.719q-.625-.578-1.219-.844-.594-.281-1.219-.281-1.344 0-2.031 1.078-.688 1.062-.688 3.156 0 2.094.688 3.172.688 1.062 2.031 1.062.625 0 1.219-.265.594-.281 1.219-.86v2.72Z"/><text x="124.5" y="232.36" fill="#D9B8FF" font-family="Helvetica" font-size="17" textLength="138">digitalocean_vpc</text><path fill="none" d="M295.5 346.59v53.31" style="stroke:#1a83af;stroke-width:2"/><path fill="#1A83AF" d="m295.5 404.78 4-9-4 4-4-4 4 9z" style="stroke:#1a83af;stroke-width:2"/><path fill="none" d="M387.78 246.8c-18.74 15.94-45.39 38.59-65.23 55.46" style="stroke:#1a83af;stroke-width:2"/><path fill="#1A83AF" d="m319.17 305.99 9.448-2.782-5.639-.457.457-5.638-4.266 8.877z" style="stroke:#1a83af;stroke-width:2"/><path fill="none" d="M90.37 146.97c-20.83 23.45-49.25 64.26-33.87 99.4 34.42 78.67 124.46 130.37 183.66 157.05" style="stroke:#1a83af;stroke-width:2"/><path fill="#1A83AF" d="m244.44 405.77-6.604-7.307 2.034 5.279-5.279 2.034 9.849-.006z" style="stroke:#1a83af;stroke-width:2"/><path fill="none" d="M93.87 146.98c-18.16 24.92-43.05 68.73-21.37 99.39 24.11 34.1 64.24 53.56 103.88 64.63" style="stroke:#1a83af;stroke-width:2"/><path fill="#1A83AF" d="m180.71 312.44-7.65-6.202 2.822 4.902-4.902 2.823 9.73-1.523z" style="stroke:#1a83af;stroke-width:2"/><path fill="none" d="M123.53 147.01c11.37 15.67 27.47 37.83 39.65 54.61" style="stroke:#1a83af;stroke-width:2"/><path fill="#1A83AF" d="m166.5 205.2-2.063-9.63-.88 5.588-5.588-.88 8.531 4.922z" style="stroke:#1a83af;stroke-width:2"/><path fill="none" d="M458.81 47.2c26.86 13.06 58.78 32.83 78.69 59.59 37.71 50.7 55.75 83.32 27 139.58-41.56 81.34-139.17 131.52-204.66 157.26" style="stroke:#1a83af;stroke-width:2"/><path fill="#1A83AF" d="m355.4 405.74 9.837.486-5.173-2.289 2.289-5.173-6.953 6.976z" style="stroke:#1a83af;stroke-width:2"/><path fill="none" d="M436.04 47.2c48.79 39.2 146.13 130.28 96.46 199.17-27.18 37.7-73.14 57.66-117.39 68.13" style="stroke:#1a83af;stroke-width:2"/><path fill="#1A83AF" d="m410.45 315.79 9.665 1.892-4.79-3.007 3.007-4.791-7.882 5.906z" style="stroke:#1a83af;stroke-width:2"/><path fill="none" d="M410.5 47.2v153.28" style="stroke:#1a83af;stroke-width:2"/><path fill="#1A83AF" d="m410.5 205.09 4-9-4 4-4-4 4 9z" style="stroke:#1a83af;stroke-width:2"/><path fill="none" d="M351.03 47.22c-50.83 16.51-123.85 40.24-176.28 57.27" style="stroke:#1a83af;stroke-width:2"/><path fill="#1A83AF" d="m170.1 106.32 9.796 1.02-5.041-2.567 2.566-5.04-7.321 6.587z" style="stroke:#1a83af;stroke-width:2"/><path fill="none" d="M388.03 47.2c-42.6 36.6-134.92 115.9-180.69 155.22" style="stroke:#1a83af;stroke-width:2"/><path fill="#1A83AF" d="m204.06 206.09 9.431-2.838-5.64-.423.423-5.641-4.214 8.902z" style="stroke:#1a83af;stroke-width:2"/><path fill="none" d="M203.22 246.8c18.74 15.94 45.39 38.59 65.23 55.46" style="stroke:#1a83af;stroke-width:2"/><path fill="#1A83AF" d="m271.83 305.99-4.266-8.877.457 5.638-5.639.457 9.448 2.782z" style="stroke:#1a83af;stroke-width:2"/></svg>
